!!!COM: Schiørring, Niels
!!!CDT: 1743-1798
!!!OPR@@DA: Choral-Bog
!!!ONM: 99
!!!OTL@@DA: Vor Gud haner ſaa ſaſt en Borg
**kern	**fb	**kern	**kern	**kern	**kern	**kern	**kern	**kern
*part6	*part6	*part6	*part5	*part5	*part4	*part3	*part2	*part1
*staff8	*	*staff7	*staff6	*staff5	*staff4	*staff3	*staff2	*staff1
*clefF4	*	*clefC1	*clefF4	*clefC1	*clefF4	*clefC4	*clefC3	*clefC1
*	*	*	*	*	*	*Trd0c0	*	*
*k[]	*	*k[]	*k[]	*k[]	*k[]	*k[]	*k[]	*k[]
*M4/4	*	*M4/4	*M4/4	*M4/4	*M4/4	*M4/4	*M4/4	*M4/4
*met(c)	*	*met(c)	*met(c)	*met(c)	*met(c)	*met(c)	*met(c)	*met(c)
*MM180	*	*MM180	*MM180	*MM180	*MM180	*MM180	*MM180	*MM180
*	*	*	*^	*^	*	*	*	*
2c	.	2cc	2ryy	2c	2e	2g	2C	2g	2e	2cc
=1	=1	=1	=1	=1	=1	=1	=1	=1	=1	=1
2A	.	2cc	2ryy@	2A	2e	2g	2A	2cc	2e	2cc
*	*	*	*	*	*	*^	*	*	*	*
2F	.	2cc	2c	2F	2cc	2a	2f\	2F	2cc	2a	2cc
=2	=2	=2	=2	=2	=2	=2	=2	=2	=2	=2	=2
2E	6	2g	2c	2E	2g	2g	1r	2E	2cc	2g	2g
2D	6	2b	2ryy@	2D	2d	2f	.	2D	2dd	2f	2b
=3	=3	=3	=3	=3	=3	=3	=3	=3	=3	=3	=3
2C	.	2cc	2ryy@	2C	2e	2.g	1r	2C	2ee	2.g	2cc
2D	4	2a	4d	2D	2a	.	.	2D	(4dd	.	2a
=4	=4	=4	=4	=4	=4	=4	=4	=4	=4	=4	=4
2GG	#	2g	2ryy@	2GG	2B	2d	1r	2GG	2b	2g	2g
2A	.	2cc	2e	2A	2cc	[2a	.	2A	2ee	(4e	2cc
.	.	.	.	.	.	.	.	.	.	[4a)	.
=5	=5	=5	=5	=5	=5	=5	=5	=5	=5	=5	=5
2E	4	2b	2e	2E	2b	4a]	1r	2E	2ee	(4a]	2b
2F	9	2a	2c	2F	2a	2ryy@	.	2F	2cc	.	2a
=6	=6	=6	=6	=6	=6	=6	=6	=6	=6	=6	=6
2C	8 4	2g	4c	2C	2g	4f]	1r	2C	(4cc	(4f]	2g
2C#X	6	2a	2A	2C#X	2a	2ryy@	.	2C#X	2a	2e	2a
=7	=7	=7	=7	=7	=7	=7	=7	=7	=7	=7	=7
4D	5	4f	8AL	4D	4f	4d	1r	(4D	(8aL	(4d	(4f
4E	6	4e	4G	4E	4e	2cni	.	4E	4cc	2c	4e
4F	6 5	2d	4A	4F	2d	.	.	4F	4a	.	2d)
4G	3	.	4G	4G	.	4B	.	4G)	4g)	4B)	.
=	=	=	=	=	=	=	=	=	=	=	=
2C	.	2c	2E	2C	2c	2G	2r	2C	2e	2c	2c
=8:|!	=8:|!	=8:|!	=8:|!	=8:|!	=8:|!	=8:|!	=8:|!	=8:|!	=8:|!	=8:|!	=8:|!
2C	.	2c	2E	2C	2c	2G	2r	2C	2e	2G	2c
=9	=9	=9	=9	=9	=9	=9	=9	=9	=9	=9	=9
2BB	6	2g	2G	2BB	2g	2d	1r	2BB	2g	2d	2g
2C	6	2a	2c	2C	2a	2e	.	2C	2cc	2e	2a
=10	=10	=10	=10	=10	=10	=10	=10	=10	=10	=10	=10
1D	6 4	2g	2B	1D	2g	1d	1r	2D	2b	2d	2g
.	5 #	2f#X	2A	.	2f#X	.	.	2D	2a	2d	2f#X
=11	=11	=11	=11	=11	=11	=11	=11	=11	=11	=11	=11
2GG	.	2g	2G	2GG	2g	2d	2B\	2GG	2b	2d	2g
*	*	*	*	*	*	*v	*v	*	*	*	*
2AA	.	2c	2E	2AA	2c	2A	2AA	2e	2c	2c
=12	=12	=12	=12	=12	=12	=12	=12	=12	=12	=12
2E	6	2g	2G	2E	2g	2c	2E	2g	2c	2g
*	*	*	*	*	*	*^	*	*	*	*
2C	-7	2g	2B-X	2C	2g	[2e	2c\	2C	2b-X	[2e	2g
=13	=13	=13	=13	=13	=13	=13	=13	=13	=13	=13	=13
2F	7	2a	2A	2F	2a	4e]	4c\	2F	2a	(4e]	2a
*	*	*	*	*	*	*v	*v	*	*	*	*
2D	6	2b	2ryy@	2D	2d	2f	2D	2f	2d	2b
=14	=14	=14	=14	=14	=14	=14	=14	=14	=14	=14
2C	.	2cc	1ryy	2C	2e	2g	2C	2g	2e	2cc
2G	.	2b	.	2G	2d	2g	2G	2g	2d	2b
=15	=15	=15	=15	=15	=15	=15	=15	=15	=15	=15
2F#X	5	2cc	1ryy	2F#X	2d	2a	2F#X	2a	2d	2cc
2G	.	2b	.	2G	2d	[2g	2G	[2g	2d	2b
=16	=16	=16	=16	=16	=16	=16	=16	=16	=16	=16
2C	6 5	2a	2ryy@	2C	2e	2g]	2C	2g]	2e	2a
2D	#	2a	4d	2D	2a	2f#X	2D	2f#X	(4d	2a
.	.	.	4c	.	.	.	.	.	4c)	.
=17	=17	=17	=17	=17	=17	=17	=17	=17	=17	=17
*	*	*	*	*	*	*	*^	*	*	*
2GG	.	2g	1ryy	2GG	2B	2d	2G	2GG	2g	2B	2g
2FF	.	2a	.	2FFni	2c	2fni	2F	2FF	2cc	2c	2a
*	*	*	*	*	*	*	*v	*v	*	*	*
=18	=18	=18	=18	=18	=18	=18	=18	=18	=18	=18
2F	6	2a	2ryy@	2F	2d	2f	2F	2a	2d	2a
2G	-	2g	2B-X	2G	2g	2d	2G	2b-X	2d	2g
=19	=19	=19	=19	=19	=19	=19	=19	=19	=19	=19
2C#X	6	4a	1A	2C#X	4a	2e	2C#X	2a	2e	(4a
.	5	4g	.	.	4g	.	.	.	.	4g)
2D	.	2f	.	2D	2f	2d	2D	2a	2d	2f
=20	=20	=20	=20	=20	=20	=20	=20	=20	=20	=20
2AA	#	2e	2A	2AA	2e	2c#X	2AA	2a	2c#X	2e
2A	n	2ccni	2ryy@	2A	2e	2a	2A	2ee	2e	2cc
=21	=21	=21	=21	=21	=21	=21	=21	=21	=21	=21
2D#X	6	2b	2B	2D#X	2b	2f#X	2D#X	2b	2f#X	2b
2BB	7 #	2a	2ryy@	2BB	2d#X	2f#	2BB	2b	2d#X	2a
=22	=22	=22	=22	=22	=22	=22	=22	=22	=22	=22
2E	5	2g	1ryy	4E	4B	2e	2E	(4b	2e	2g
2F	6	2a	.	2FFni	2A	2c	2F	2a	2c	2a
=23	=23	=23	=23	=23	=23	=23	=23	=23	=23	=23
4A	6	4f	4ryy@	4AA	2.A	2.c	(4A	(2.a	(2.c	(4f
4F#X	7 5	4e	4ryy@	4FF#X	.	.	4F#X	.	.	4e
2G	9 4	2d	2ryy@	2GG	.	.	2G)	.	.	2d)
=24	=24	=24	=24	=24	=24	=24	=24	=24	=24	=24
2C	7	2c	2E	2C	2c	2G	2C	2e	2c	2c
*	*	*	*v	*v	*	*	*	*	*	*
*	*	*	*	*v	*v	*	*	*	*
==	==	==	==	==	==	==	==	==
*-	*-	*-	*-	*-	*-	*-	*-	*-
!!!system-decoration: {(s1,s2,s3,s4)}{(s5,s6)}{(s7,s8)}
!!!RDF**kern: i = editorial accidental
!!!AGN: chorale
!!!EED: Derek Remeš
!!!EED2: Victor Phan
!!!END: 2023/11/28
!!!ENC: Wolfgang Drescher
!!!EEV: 2023/11/28
!!!title: @{ONM}. @{OTL}